X: 10157
T: Dingle Regatta, The
R: slide
M: 12/8
K: Gmajor
[K:Gmaj][M:6/8]|:g|f>ed def g3 d2B|c2d B2c A2A A2f|
f>ed def g3 e2d|^c2c cBc d3 d2:|
B/c/|d2d e2d B2B d2c|A2A AGA B3 G2B/c/|
d2d e2d B2B d2c|A2A ABA G3 G2||

